symbolic/64x64/apps/christmas-tree.svg

<svg xmlns="http://www.w3.org/2000/svg" width="64" height="64" version="1">
 <path style="opacity:0.2" d="m 32.258786,21.006126 a 5.5213578,5.5618986 0 0 0 -5.040969,2.77524 l -7.237971,12.629787 -7.240664,12.629788 a 5.5213578,5.5618986 0 0 0 1.68751,7.386157 c 0,0 6.955485,4.572902 17.573306,4.572902 10.617823,0 17.573307,-4.572902 17.573307,-4.572902 a 5.5213578,5.5618986 0 0 0 1.687514,-7.386157 L 44.020152,36.411153 36.782183,23.781366 a 5.5213578,5.5618986 0 0 0 -4.523397,-2.77524 z"/>
 <path style="fill:#337f36" d="m 32.258786,20.006127 a 5.5213578,5.5618986 0 0 0 -5.040969,2.77524 l -7.237971,12.629787 -7.240664,12.629788 a 5.5213578,5.5618986 0 0 0 1.68751,7.386157 c 0,0 6.955485,4.572902 17.573306,4.572902 10.617823,0 17.573307,-4.572902 17.573307,-4.572902 a 5.5213578,5.5618986 0 0 0 1.687514,-7.386157 L 44.020152,35.411154 36.782183,22.781367 a 5.5213578,5.5618986 0 0 0 -4.523397,-2.77524 z"/>
 <path style="opacity:0.2" d="m 32.219968,16.005206 a 4.6931545,4.7276142 0 0 0 -4.284824,2.358953 L 21.78287,29.099478 15.628305,39.8348 a 4.6931545,4.7276142 0 0 0 1.434383,6.278233 c 0,0 5.912163,3.886966 14.93731,3.886966 9.025151,0 14.937313,-3.886966 14.937313,-3.886966 A 4.6931545,4.7276142 0 0 0 48.371696,39.8348 L 42.21713,29.099478 36.064856,18.364159 a 4.6931545,4.7276142 0 0 0 -3.844888,-2.358953 z"/>
 <path style="fill:#3e9d43" d="M 32.219968,15.005207 A 4.6931545,4.7276142 0 0 0 27.935144,17.36416 L 21.78287,28.099479 15.628305,38.834801 a 4.6931545,4.7276142 0 0 0 1.434383,6.278233 c 0,0 5.912163,3.886966 14.93731,3.886966 9.025151,0 14.937313,-3.886966 14.937313,-3.886966 a 4.6931545,4.7276142 0 0 0 1.434385,-6.278233 L 42.21713,28.099479 36.064856,17.36416 a 4.6931545,4.7276142 0 0 0 -3.844888,-2.358953 z"/>
 <path style="opacity:0.2" d="m 32.181148,11.004305 a 3.8649483,3.8933268 0 0 0 -3.528675,1.942667 l -5.066576,8.840844 -5.068461,8.840848 a 3.8649483,3.8933268 0 0 0 1.181256,5.170306 c 0,0 4.868836,3.201029 12.301305,3.201029 7.432473,0 12.301309,-3.201029 12.301309,-3.201029 a 3.8649483,3.8933268 0 0 0 1.181258,-5.170306 l -5.068463,-8.840848 -5.066576,-8.840844 a 3.8649483,3.8933268 0 0 0 -3.166377,-1.942667 z"/>
 <path style="fill:#5dc062" d="m 32.181148,10.004306 a 3.8649483,3.8933268 0 0 0 -3.528675,1.942667 l -5.066576,8.840844 -5.068461,8.840848 a 3.8649483,3.8933268 0 0 0 1.181256,5.170306 c 0,0 4.868836,3.201029 12.301305,3.201029 7.432473,0 12.301309,-3.201029 12.301309,-3.201029 a 3.8649483,3.8933268 0 0 0 1.181258,-5.170306 l -5.068463,-8.840848 -5.066576,-8.840844 a 3.8649483,3.8933268 0 0 0 -3.166377,-1.942667 z"/>
 <path style="opacity:0.2" d="m 31.99987,4.9998625 c -0.991665,0.014677 -1.698889,0.633369 -2.030788,1.6575359 l 0.01238,-0.046187 -1.558131,5.4015176 -5.254472,0 c -0.01141,-1.89e-4 -0.0223,-1.89e-4 -0.03376,0 -0.627475,0.02106 -1.193264,0.324506 -1.591893,0.827159 -0.862111,1.024965 -0.679387,2.224876 0.415366,2.989281 l 4.131144,3.127085 -1.603145,5.158447 c -0.0018,0.0056 -0.0034,0.01141 -0.0051,0.01719 -0.244961,0.83346 -0.01467,1.692124 0.601565,2.279516 0.0042,0.0044 0.0096,0.0086 0.01437,0.01292 0.740445,0.681756 1.780815,0.768404 2.617004,0.204105 0.01591,-0.01073 0.03173,-0.02179 0.04706,-0.0333 l 4.238588,-3.170048 4.238568,3.170048 c 0.01532,0.01141 0.03114,0.02265 0.04706,0.0333 0.836189,0.564299 1.876562,0.477651 2.617004,-0.204105 0.0044,-0.0042 0.0096,-0.0085 0.01437,-0.01292 0.616172,-0.587392 0.846525,-1.446056 0.601563,-2.279516 -0.0017,-0.0058 -0.0034,-0.01141 -0.0051,-0.01719 l -1.603239,-5.158447 4.131144,-3.127083 c 1.094754,-0.764407 1.277477,-1.964318 0.415366,-2.989283 -0.398627,-0.502652 -0.964418,-0.806092 -1.591893,-0.827157 -0.01141,-1.9e-4 -0.02231,-1.9e-4 -0.03376,0 l -5.254472,0 -1.558131,-5.4015192 0.01238,0.046187 C 33.698758,5.6332315 32.991536,5.0145429 31.99987,4.9998625 Z"/>
 <path style="fill:#ae3030" d="m 31.99987,3.9998635 c -0.991665,0.014677 -1.698889,0.633369 -2.030788,1.6575359 l 0.01238,-0.046187 -1.558131,5.4015176 -5.254472,0 c -0.01141,-1.89e-4 -0.0223,-1.89e-4 -0.03376,0 -0.627475,0.02106 -1.193264,0.324506 -1.591893,0.827159 -0.862111,1.024965 -0.679387,2.224876 0.415366,2.989281 l 4.131144,3.127085 -1.603145,5.158447 c -0.0018,0.0056 -0.0034,0.01141 -0.0051,0.01719 -0.244961,0.83346 -0.01467,1.692124 0.601565,2.279516 0.0042,0.0044 0.0096,0.0086 0.01437,0.01292 0.740445,0.681756 1.780815,0.768404 2.617004,0.204105 0.01591,-0.01073 0.03173,-0.02179 0.04706,-0.0333 l 4.238588,-3.170048 4.238568,3.170048 c 0.01532,0.01141 0.03114,0.02265 0.04706,0.0333 0.836189,0.564299 1.876562,0.477651 2.617004,-0.204105 0.0044,-0.0042 0.0096,-0.0085 0.01437,-0.01292 0.616172,-0.587392 0.846525,-1.446056 0.601563,-2.279516 -0.0017,-0.0058 -0.0034,-0.01141 -0.0051,-0.01719 l -1.603239,-5.158447 4.131144,-3.127083 c 1.094754,-0.764407 1.277477,-1.964318 0.415366,-2.989283 -0.398627,-0.502652 -0.964418,-0.806092 -1.591893,-0.827157 -0.01141,-1.9e-4 -0.02231,-1.9e-4 -0.03376,0 l -5.254472,0 -1.558131,-5.4015192 0.01238,0.046187 C 33.698758,4.6332325 32.991536,4.0145439 31.99987,3.9998635 Z"/>
 <path style="opacity:0.2" d="m 28,32.999999 a 3.0000002,3.0000002 0 0 1 -3,3 3.0000002,3.0000002 0 0 1 -3,-3 3.0000002,3.0000002 0 0 1 3,-3.000001 3.0000002,3.0000002 0 0 1 3,3.000001 z"/>
 <path style="fill:#ffe15e" d="M 28,32 A 3.0000002,3.0000002 0 0 1 25,35 3.0000002,3.0000002 0 0 1 22,32 3.0000002,3.0000002 0 0 1 25,28.999999 3.0000002,3.0000002 0 0 1 28,32 Z"/>
 <path style="opacity:0.2" d="m 44,41.999998 a 3.0000002,3.0000002 0 0 1 -3,3.000001 3.0000002,3.0000002 0 0 1 -3,-3.000001 3.0000002,3.0000002 0 0 1 3,-3 3.0000002,3.0000002 0 0 1 3,3 z"/>
 <path style="fill:#ffe15e" d="M 44,40.999999 A 3.0000002,3.0000002 0 0 1 41,44 a 3.0000002,3.0000002 0 0 1 -3,-3.000001 3.0000002,3.0000002 0 0 1 3,-3 3.0000002,3.0000002 0 0 1 3,3 z"/>
 <path style="opacity:0.2" d="m 28,54.999999 a 3.0000002,3.0000002 0 0 1 -3,3 3.0000002,3.0000002 0 0 1 -3,-3 3.0000002,3.0000002 0 0 1 3,-3 3.0000002,3.0000002 0 0 1 3,3 z"/>
 <path style="fill:#ffe15e" d="m 28,54 a 3.0000002,3.0000002 0 0 1 -3,3 3.0000002,3.0000002 0 0 1 -3,-3 3.0000002,3.0000002 0 0 1 3,-3 3.0000002,3.0000002 0 0 1 3,3 z"/>
 <path style="opacity:0.2" d="m 37,31.500018 a 1.5000001,1.5000001 0 0 1 -1.5,1.5 1.5000001,1.5000001 0 0 1 -1.5,-1.5 1.5000001,1.5000001 0 0 1 1.5,-1.500001 1.5000001,1.5000001 0 0 1 1.5,1.500001 z"/>
 <path style="fill:#ffe15e" d="m 37,30.500019 a 1.5000001,1.5000001 0 0 1 -1.5,1.5 1.5000001,1.5000001 0 0 1 -1.5,-1.5 1.5000001,1.5000001 0 0 1 1.5,-1.500001 1.5000001,1.5000001 0 0 1 1.5,1.500001 z"/>
 <path style="opacity:0.2" d="M 31,45.50001 A 1.4999996,1.4999996 0 0 1 29.499999,47.000009 1.4999996,1.4999996 0 0 1 28,45.50001 1.4999996,1.4999996 0 0 1 29.499999,44.000009 1.4999996,1.4999996 0 0 1 31,45.50001 Z"/>
 <path style="fill:#ffe15e" d="M 31,44.500011 A 1.4999996,1.4999996 0 0 1 29.499999,46.00001 1.4999996,1.4999996 0 0 1 28,44.500011 1.4999996,1.4999996 0 0 1 29.499999,43.00001 1.4999996,1.4999996 0 0 1 31,44.500011 Z"/>
 <path style="opacity:0.2" d="m 40,54.499999 a 1.5000001,1.5000001 0 0 1 -1.5,1.5 1.5000001,1.5000001 0 0 1 -1.5,-1.5 1.5000001,1.5000001 0 0 1 1.5,-1.5 1.5000001,1.5000001 0 0 1 1.5,1.5 z"/>
 <path style="fill:#ffe15e" d="M 40,53.5 A 1.5000001,1.5000001 0 0 1 38.5,55 1.5000001,1.5000001 0 0 1 37,53.5 1.5000001,1.5000001 0 0 1 38.5,52 1.5000001,1.5000001 0 0 1 40,53.5 Z"/>
 <path style="opacity:0.2" d="m 22,41.499999 a 1.5000001,1.5000001 0 0 1 -1.5,1.5 1.5000001,1.5000001 0 0 1 -1.5,-1.5 1.5000001,1.5000001 0 0 1 1.5,-1.5 1.5000001,1.5000001 0 0 1 1.5,1.5 z"/>
 <path style="fill:#ffe15e" d="M 22,40.5 A 1.5000001,1.5000001 0 0 1 20.5,42 1.5000001,1.5000001 0 0 1 19,40.5 1.5000001,1.5000001 0 0 1 20.5,39 1.5000001,1.5000001 0 0 1 22,40.5 Z"/>
 <path style="opacity:0.2" d="m 48.999991,50.499999 a 1.5000001,1.5000001 0 0 1 -1.5,1.5 1.5000001,1.5000001 0 0 1 -1.5,-1.5 1.5000001,1.5000001 0 0 1 1.5,-1.5 1.5000001,1.5000001 0 0 1 1.5,1.5 z"/>
 <path style="fill:#ffe15e" d="m 48.999991,49.5 a 1.5000001,1.5000001 0 0 1 -1.5,1.5 1.5000001,1.5000001 0 0 1 -1.5,-1.5 1.5000001,1.5000001 0 0 1 1.5,-1.5 1.5000001,1.5000001 0 0 1 1.5,1.5 z"/>
 <path style="fill:#ffffff;opacity:0.2" d="M 32 4 C 31.008335 4.014677 30.300649 4.6340362 29.96875 5.6582031 L 28.423828 11.013672 L 23.167969 11.013672 C 23.156559 11.013483 23.146226 11.013483 23.134766 11.013672 C 22.507291 11.034732 21.941598 11.337191 21.542969 11.839844 C 21.044367 12.432632 20.907353 13.082097 21.082031 13.673828 C 21.166703 13.39148 21.316484 13.109112 21.542969 12.839844 C 21.941598 12.337191 22.507291 12.034732 23.134766 12.013672 C 23.146226 12.013483 23.156559 12.013483 23.167969 12.013672 L 28.423828 12.013672 L 29.96875 6.6582031 C 30.300649 5.6340362 31.008335 5.014677 32 5 C 32.991666 5.0146804 33.69909 5.6340358 34.03125 6.6582031 L 35.576172 12.013672 L 40.832031 12.013672 C 40.843481 12.013482 40.853824 12.013482 40.865234 12.013672 C 41.492709 12.034737 42.058404 12.337192 42.457031 12.839844 C 42.683516 13.109112 42.833297 13.39148 42.917969 13.673828 C 43.092647 13.082097 42.955633 12.432632 42.457031 11.839844 C 42.058404 11.337192 41.492709 11.034737 40.865234 11.013672 C 40.853824 11.013482 40.843481 11.013482 40.832031 11.013672 L 35.576172 11.013672 L 34.03125 5.6582031 C 33.69909 4.6340358 32.991666 4.0146804 32 4 z M 25.837891 18.765625 L 24.486328 23.115234 C 24.484528 23.120834 24.484122 23.127033 24.482422 23.132812 C 24.364489 23.534068 24.360716 23.938502 24.453125 24.318359 C 24.466108 24.256329 24.464237 24.194686 24.482422 24.132812 C 24.484122 24.127032 24.484528 24.120834 24.486328 24.115234 L 26.089844 18.957031 L 25.837891 18.765625 z M 38.162109 18.765625 L 37.910156 18.957031 L 39.513672 24.115234 C 39.515372 24.121014 39.517831 24.127012 39.519531 24.132812 C 39.537135 24.192709 39.534147 24.252453 39.546875 24.3125 C 39.637846 23.934256 39.63688 23.532082 39.519531 23.132812 C 39.517831 23.127012 39.515372 23.121014 39.513672 23.115234 L 38.162109 18.765625 z"/>
</svg>

<svg xmlns="http://www.w3.org/2000/svg" width="64" height="64" version="1"><path style="opacity:.2" d="M32.259 21.006a5.521 5.562 0 0 0-5.041 2.775l-7.238 12.63-7.24 12.63a5.521 5.562 0 0 0 1.687 7.386S21.382 61 32 61s17.573-4.573 17.573-4.573a5.521 5.562 0 0 0 1.688-7.386l-7.24-12.63-7.239-12.63a5.521 5.562 0 0 0-4.523-2.775z"/><path style="fill:#337f36" d="M32.259 20.006a5.521 5.562 0 0 0-5.041 2.775l-7.238 12.63-7.24 12.63a5.521 5.562 0 0 0 1.687 7.386S21.382 60 32 60s17.573-4.573 17.573-4.573a5.521 5.562 0 0 0 1.688-7.386l-7.24-12.63-7.239-12.63a5.521 5.562 0 0 0-4.523-2.775z"/><path style="opacity:.2" d="M32.22 16.005a4.693 4.728 0 0 0-4.285 2.36l-6.152 10.734-6.155 10.736a4.693 4.728 0 0 0 1.435 6.278S22.975 50 32 50c9.025 0 14.937-3.887 14.937-3.887a4.693 4.728 0 0 0 1.435-6.278l-6.155-10.736-6.152-10.735a4.693 4.728 0 0 0-3.845-2.359z"/><path style="fill:#3e9d43" d="M32.22 15.005a4.693 4.728 0 0 0-4.285 2.36l-6.152 10.734-6.155 10.736a4.693 4.728 0 0 0 1.435 6.278S22.975 49 32 49c9.025 0 14.937-3.887 14.937-3.887a4.693 4.728 0 0 0 1.435-6.278l-6.155-10.736-6.152-10.735a4.693 4.728 0 0 0-3.845-2.359z"/><path style="opacity:.2" d="M32.181 11.004a3.865 3.893 0 0 0-3.529 1.943l-5.066 8.84-5.069 8.842a3.865 3.893 0 0 0 1.182 5.17S24.568 39 32 39s12.301-3.201 12.301-3.201a3.865 3.893 0 0 0 1.182-5.17l-5.069-8.841-5.066-8.841a3.865 3.893 0 0 0-3.167-1.943z"/><path style="fill:#5dc062" d="M32.181 10.004a3.865 3.893 0 0 0-3.529 1.943l-5.066 8.84-5.069 8.842a3.865 3.893 0 0 0 1.182 5.17S24.568 38 32 38s12.301-3.201 12.301-3.201a3.865 3.893 0 0 0 1.182-5.17l-5.069-8.841-5.066-8.841a3.865 3.893 0 0 0-3.167-1.943z"/><path style="opacity:.2" d="M32 5c-.992.015-1.699.633-2.03 1.657l.011-.046-1.558 5.402H23.135c-.627.02-1.193.324-1.592.827-.862 1.025-.68 2.225.416 2.99l4.13 3.126-1.602 5.159-.006.017a2.237 2.237 0 0 0 .602 2.28l.014.012c.74.682 1.781.769 2.617.204a1.14 1.14 0 0 0 .047-.033l4.24-3.17 4.238 3.17c.015.012.03.023.047.033.836.565 1.876.478 2.617-.204l.014-.013a2.237 2.237 0 0 0 .602-2.28l-.005-.016-1.604-5.159 4.131-3.127c1.095-.764 1.278-1.964.416-2.99-.399-.502-.965-.805-1.592-.826a1 1 0 0 0-.034 0h-5.254L34.019 6.61l.012.046C33.699 5.633 32.99 5.015 32 5z"/><path style="fill:#ae3030" d="M32 4c-.992.015-1.699.633-2.03 1.657l.011-.046-1.558 5.402H23.135c-.627.02-1.193.324-1.592.827-.862 1.025-.68 2.225.416 2.99l4.13 3.126-1.602 5.159-.006.017a2.237 2.237 0 0 0 .602 2.28l.014.012c.74.682 1.781.769 2.617.204a1.14 1.14 0 0 0 .047-.033l4.24-3.17 4.238 3.17c.015.012.03.023.047.033.836.565 1.876.478 2.617-.204l.014-.013a2.237 2.237 0 0 0 .602-2.28l-.005-.016-1.604-5.159 4.131-3.127c1.095-.764 1.278-1.964.416-2.99-.399-.502-.965-.805-1.592-.826a1 1 0 0 0-.034 0h-5.254L34.019 5.61l.012.046C33.699 4.633 32.99 4.015 32 4z"/><path style="opacity:.2" d="M28 33a3 3 0 0 1-3 3 3 3 0 0 1-3-3 3 3 0 0 1 3-3 3 3 0 0 1 3 3z"/><path style="fill:#ffe15e" d="M28 32a3 3 0 0 1-3 3 3 3 0 0 1-3-3 3 3 0 0 1 3-3 3 3 0 0 1 3 3z"/><path style="opacity:.2" d="M44 42a3 3 0 0 1-3 3 3 3 0 0 1-3-3 3 3 0 0 1 3-3 3 3 0 0 1 3 3z"/><path style="fill:#ffe15e" d="M44 41a3 3 0 0 1-3 3 3 3 0 0 1-3-3 3 3 0 0 1 3-3 3 3 0 0 1 3 3z"/><path style="opacity:.2" d="M28 55a3 3 0 0 1-3 3 3 3 0 0 1-3-3 3 3 0 0 1 3-3 3 3 0 0 1 3 3z"/><path style="fill:#ffe15e" d="M28 54a3 3 0 0 1-3 3 3 3 0 0 1-3-3 3 3 0 0 1 3-3 3 3 0 0 1 3 3z"/><path style="opacity:.2" d="M37 31.5a1.5 1.5 0 0 1-1.5 1.5 1.5 1.5 0 0 1-1.5-1.5 1.5 1.5 0 0 1 1.5-1.5 1.5 1.5 0 0 1 1.5 1.5z"/><path style="fill:#ffe15e" d="M37 30.5a1.5 1.5 0 0 1-1.5 1.5 1.5 1.5 0 0 1-1.5-1.5 1.5 1.5 0 0 1 1.5-1.5 1.5 1.5 0 0 1 1.5 1.5z"/><path style="opacity:.2" d="M31 45.5a1.5 1.5 0 0 1-1.5 1.5 1.5 1.5 0 0 1-1.5-1.5 1.5 1.5 0 0 1 1.5-1.5 1.5 1.5 0 0 1 1.5 1.5z"/><path style="fill:#ffe15e" d="M31 44.5a1.5 1.5 0 0 1-1.5 1.5 1.5 1.5 0 0 1-1.5-1.5 1.5 1.5 0 0 1 1.5-1.5 1.5 1.5 0 0 1 1.5 1.5z"/><path style="opacity:.2" d="M40 54.5a1.5 1.5 0 0 1-1.5 1.5 1.5 1.5 0 0 1-1.5-1.5 1.5 1.5 0 0 1 1.5-1.5 1.5 1.5 0 0 1 1.5 1.5z"/><path style="fill:#ffe15e" d="M40 53.5a1.5 1.5 0 0 1-1.5 1.5 1.5 1.5 0 0 1-1.5-1.5 1.5 1.5 0 0 1 1.5-1.5 1.5 1.5 0 0 1 1.5 1.5z"/><path style="opacity:.2" d="M22 41.5a1.5 1.5 0 0 1-1.5 1.5 1.5 1.5 0 0 1-1.5-1.5 1.5 1.5 0 0 1 1.5-1.5 1.5 1.5 0 0 1 1.5 1.5z"/><path style="fill:#ffe15e" d="M22 40.5a1.5 1.5 0 0 1-1.5 1.5 1.5 1.5 0 0 1-1.5-1.5 1.5 1.5 0 0 1 1.5-1.5 1.5 1.5 0 0 1 1.5 1.5z"/><path style="opacity:.2" d="M49 50.5a1.5 1.5 0 0 1-1.5 1.5 1.5 1.5 0 0 1-1.5-1.5 1.5 1.5 0 0 1 1.5-1.5 1.5 1.5 0 0 1 1.5 1.5z"/><path style="fill:#ffe15e" d="M49 49.5a1.5 1.5 0 0 1-1.5 1.5 1.5 1.5 0 0 1-1.5-1.5 1.5 1.5 0 0 1 1.5-1.5 1.5 1.5 0 0 1 1.5 1.5z"/><path style="fill:#fff;opacity:.2" d="M32 4c-.992.015-1.7.634-2.031 1.658l-1.545 5.356H23.135c-.628.02-1.193.323-1.592.826-.499.593-.636 1.242-.461 1.834a2.34 2.34 0 0 1 .461-.834c.399-.503.964-.805 1.592-.826H28.424l1.545-5.356C30.3 5.634 31.009 5.015 32 5c.992.015 1.7.634 2.031 1.658l1.545 5.356H40.865c.628.02 1.193.323 1.592.826.227.27.376.551.461.834.175-.592.038-1.241-.461-1.834-.399-.503-.964-.805-1.592-.826H35.576l-1.545-5.356C33.7 4.634 32.991 4.015 32 4zm-6.162 14.766-1.352 4.35-.004.017a2.274 2.274 0 0 0-.029 1.185c.013-.062.011-.123.03-.185l.003-.018 1.604-5.158-.252-.191zm12.324 0-.252.191 1.604 5.158.006.018c.017.06.014.12.027.18.09-.379.09-.78-.027-1.18l-.006-.018-1.352-4.35z"/></svg>
